packages/ui-icons/svg/Line/zoom-out.svg

<svg viewBox="0 0 1920 1920" version="1.1" xmlns="http://www.w3.org/2000/svg">
    <path d="M853,1600 C470.706667,1600 159.666667,1288.96 159.666667,906.666667 C159.666667,524.373333 470.706667,213.333333 853,213.333333 C1235.29333,213.333333 1546.33333,524.373333 1546.33333,906.666667 C1546.33333,1288.96 1235.29333,1600 853,1600 L853,1600 Z M1850.76,1828.90667 L1454.38667,1432.64 C1577.58667,1291.73333 1653,1108.16 1653,906.666667 C1653,465.493333 1294.17333,106.666667 853,106.666667 C411.826667,106.666667 53,465.493333 53,906.666667 C53,1347.84 411.826667,1706.66667 853,1706.66667 C1054.38667,1706.66667 1238.17333,1631.25333 1378.97333,1508.05333 L1775.24,1904.42667 L1850.76,1828.90667 Z M479.666667,960.053333 L1226.33333,960.053333 L1226.33333,853.386667 L479.666667,853.386667 L479.666667,960.053333 Z" stroke="none" stroke-width="1" fill-rule="evenodd"/>
</svg>

<svg viewBox="0 0 1920 1920" version="1.1" xmlns="http://www.w3.org/2000/svg">
    <path d="M853 1600c-382.293 0-693.333-311.04-693.333-693.333 0-382.294 311.04-693.334 693.333-693.334 382.293 0 693.333 311.04 693.333 693.334C1546.333 1288.96 1235.293 1600 853 1600zm997.76 228.907l-396.373-396.267C1577.587 1291.733 1653 1108.16 1653 906.667c0-441.174-358.827-800-800-800s-800 358.826-800 800c0 441.173 358.827 800 800 800 201.387 0 385.173-75.414 525.973-198.614l396.267 396.374 75.52-75.52zM479.667 960.053h746.666V853.387H479.667v106.666z" stroke="none" stroke-width="1" fill-rule="evenodd"/>
</svg>
